documentation/public/assets/images/checkbox-field.svg

<svg width="143" height="18" viewBox="0 0 143 18" fill="none" xmlns="http://www.w3.org/2000/svg">
<g clip-path="url(#clip0_1419_15453)">
<rect width="16" height="16" rx="2" fill="#0F67F5"/>
<path d="M4 8.5L6.5 11L12 5.5" stroke="white" stroke-width="1.7" stroke-linecap="round" stroke-linejoin="round"/>
</g>
<path d="M34.7727 6H33.3636C33.2803 5.5947 33.1345 5.23864 32.9261 4.93182C32.7216 4.625 32.4716 4.36742 32.1761 4.15909C31.8845 3.94697 31.5606 3.78788 31.2045 3.68182C30.8485 3.57576 30.4773 3.52273 30.0909 3.52273C29.3864 3.52273 28.7481 3.70076 28.1761 4.05682C27.608 4.41288 27.1553 4.9375 26.8182 5.63068C26.4848 6.32386 26.3182 7.17424 26.3182 8.18182C26.3182 9.18939 26.4848 10.0398 26.8182 10.733C27.1553 11.4261 27.608 11.9508 28.1761 12.3068C28.7481 12.6629 29.3864 12.8409 30.0909 12.8409C30.4773 12.8409 30.8485 12.7879 31.2045 12.6818C31.5606 12.5758 31.8845 12.4186 32.1761 12.2102C32.4716 11.9981 32.7216 11.7386 32.9261 11.4318C33.1345 11.1212 33.2803 10.7652 33.3636 10.3636H34.7727C34.6667 10.9583 34.4735 11.4905 34.1932 11.9602C33.9129 12.4299 33.5644 12.8295 33.1477 13.1591C32.7311 13.4848 32.2633 13.733 31.7443 13.9034C31.2292 14.0739 30.678 14.1591 30.0909 14.1591C29.0985 14.1591 28.2159 13.9167 27.4432 13.4318C26.6705 12.947 26.0625 12.2576 25.6193 11.3636C25.1761 10.4697 24.9545 9.40909 24.9545 8.18182C24.9545 6.95455 25.1761 5.89394 25.6193 5C26.0625 4.10606 26.6705 3.41667 27.4432 2.93182C28.2159 2.44697 29.0985 2.20455 30.0909 2.20455C30.678 2.20455 31.2292 2.28977 31.7443 2.46023C32.2633 2.63068 32.7311 2.88068 33.1477 3.21023C33.5644 3.53598 33.9129 3.93371 34.1932 4.40341C34.4735 4.86932 34.6667 5.40151 34.7727 6ZM38.2088 8.75V14H36.8679V2.36364H38.2088V6.63636H38.3224C38.527 6.18561 38.8338 5.82765 39.2429 5.5625C39.6558 5.29356 40.205 5.15909 40.8906 5.15909C41.4853 5.15909 42.0062 5.27841 42.4531 5.51705C42.9001 5.75189 43.2467 6.11364 43.4929 6.60227C43.7429 7.08712 43.8679 7.70455 43.8679 8.45455V14H42.527V8.54545C42.527 7.85227 42.3471 7.31629 41.9872 6.9375C41.6312 6.55492 41.1368 6.36364 40.5043 6.36364C40.0649 6.36364 39.6709 6.45644 39.3224 6.64205C38.9777 6.82765 38.705 7.09848 38.5043 7.45455C38.3073 7.81061 38.2088 8.24242 38.2088 8.75ZM49.9801 14.1818C49.1392 14.1818 48.4138 13.9962 47.804 13.625C47.1979 13.25 46.7301 12.7273 46.4006 12.0568C46.0748 11.3826 45.9119 10.5985 45.9119 9.70455C45.9119 8.81061 46.0748 8.02273 46.4006 7.34091C46.7301 6.6553 47.1884 6.12121 47.7756 5.73864C48.3665 5.35227 49.0559 5.15909 49.8438 5.15909C50.2983 5.15909 50.7472 5.23485 51.1903 5.38636C51.6335 5.53788 52.0369 5.78409 52.4006 6.125C52.7642 6.46212 53.054 6.90909 53.2699 7.46591C53.4858 8.02273 53.5938 8.70833 53.5938 9.52273V10.0909H46.8665V8.93182H52.2301C52.2301 8.43939 52.1316 8 51.9347 7.61364C51.7415 7.22727 51.465 6.92235 51.1051 6.69886C50.7491 6.47538 50.3286 6.36364 49.8438 6.36364C49.3097 6.36364 48.8475 6.49621 48.4574 6.76136C48.071 7.02273 47.7737 7.36364 47.5653 7.78409C47.357 8.20455 47.2528 8.6553 47.2528 9.13636V9.90909C47.2528 10.5682 47.3665 11.1269 47.5938 11.5852C47.8248 12.0398 48.1449 12.3864 48.554 12.625C48.9631 12.8598 49.4384 12.9773 49.9801 12.9773C50.3324 12.9773 50.6506 12.928 50.9347 12.8295C51.2225 12.7273 51.4706 12.5758 51.679 12.375C51.8873 12.1705 52.0483 11.9167 52.1619 11.6136L53.4574 11.9773C53.321 12.4167 53.0919 12.803 52.7699 13.1364C52.4479 13.4659 52.0502 13.7235 51.5767 13.9091C51.1032 14.0909 50.571 14.1818 49.9801 14.1818ZM59.179 14.1818C58.3608 14.1818 57.6563 13.9886 57.0653 13.6023C56.4744 13.2159 56.0199 12.6837 55.7017 12.0057C55.3835 11.3277 55.2244 10.553 55.2244 9.68182C55.2244 8.79545 55.3873 8.01326 55.7131 7.33523C56.0426 6.65341 56.5009 6.12121 57.0881 5.73864C57.679 5.35227 58.3684 5.15909 59.1562 5.15909C59.7699 5.15909 60.3229 5.27273 60.8153 5.5C61.3078 5.72727 61.7112 6.04545 62.0256 6.45455C62.34 6.86364 62.535 7.34091 62.6108 7.88636H61.2699C61.1676 7.48864 60.9403 7.13636 60.5881 6.82955C60.2396 6.51894 59.7699 6.36364 59.179 6.36364C58.6563 6.36364 58.1979 6.5 57.804 6.77273C57.4138 7.04167 57.1089 7.42235 56.8892 7.91477C56.6733 8.40341 56.5653 8.97727 56.5653 9.63636C56.5653 10.3106 56.6714 10.8977 56.8835 11.3977C57.0994 11.8977 57.4025 12.286 57.7926 12.5625C58.1866 12.839 58.6487 12.9773 59.179 12.9773C59.5275 12.9773 59.8438 12.9167 60.1278 12.7955C60.4119 12.6742 60.6525 12.5 60.8494 12.2727C61.0464 12.0455 61.1866 11.7727 61.2699 11.4545H62.6108C62.535 11.9697 62.3475 12.4337 62.0483 12.8466C61.7528 13.2557 61.3608 13.5814 60.8722 13.8239C60.3873 14.0625 59.8229 14.1818 59.179 14.1818ZM65.821 10.8182L65.7983 9.15909H66.071L69.8892 5.27273H71.5483L67.4801 9.38636H67.3665L65.821 10.8182ZM64.571 14V2.36364H65.9119V14H64.571ZM70.1165 14L66.7074 9.68182L67.6619 8.75L71.821 14H70.1165ZM73.456 14V2.36364H74.7969V6.65909H74.9105C75.009 6.50758 75.1454 6.31439 75.3196 6.07955C75.4976 5.84091 75.7514 5.62879 76.081 5.44318C76.4143 5.25379 76.8651 5.15909 77.4332 5.15909C78.1681 5.15909 78.8158 5.3428 79.3764 5.71023C79.937 6.07765 80.3745 6.59848 80.6889 7.27273C81.0033 7.94697 81.1605 8.74242 81.1605 9.65909C81.1605 10.5833 81.0033 11.3845 80.6889 12.0625C80.3745 12.7367 79.9389 13.2595 79.3821 13.6307C78.8253 13.9981 78.1832 14.1818 77.456 14.1818C76.8954 14.1818 76.4465 14.089 76.1094 13.9034C75.7723 13.714 75.5128 13.5 75.331 13.2614C75.1491 13.0189 75.009 12.8182 74.9105 12.6591H74.7514V14H73.456ZM74.7741 9.63636C74.7741 10.2955 74.8707 10.8769 75.0639 11.3807C75.2571 11.8807 75.5393 12.2727 75.9105 12.5568C76.2817 12.8371 76.7363 12.9773 77.2741 12.9773C77.8348 12.9773 78.3026 12.8295 78.6776 12.5341C79.0563 12.2348 79.3404 11.8333 79.5298 11.3295C79.723 10.822 79.8196 10.2576 79.8196 9.63636C79.8196 9.02273 79.7249 8.4697 79.5355 7.97727C79.3499 7.48106 79.0677 7.08902 78.6889 6.80114C78.3139 6.50947 77.8423 6.36364 77.2741 6.36364C76.7287 6.36364 76.2704 6.50189 75.8991 6.77841C75.5279 7.05114 75.2476 7.43371 75.0582 7.92614C74.8688 8.41477 74.7741 8.98485 74.7741 9.63636ZM86.7571 14.1818C85.9692 14.1818 85.2779 13.9943 84.6832 13.6193C84.0923 13.2443 83.6302 12.7197 83.2969 12.0455C82.9673 11.3712 82.8026 10.5833 82.8026 9.68182C82.8026 8.77273 82.9673 7.97917 83.2969 7.30114C83.6302 6.62311 84.0923 6.09659 84.6832 5.72159C85.2779 5.34659 85.9692 5.15909 86.7571 5.15909C87.545 5.15909 88.2344 5.34659 88.8253 5.72159C89.42 6.09659 89.8821 6.62311 90.2116 7.30114C90.545 7.97917 90.7116 8.77273 90.7116 9.68182C90.7116 10.5833 90.545 11.3712 90.2116 12.0455C89.8821 12.7197 89.42 13.2443 88.8253 13.6193C88.2344 13.9943 87.545 14.1818 86.7571 14.1818ZM86.7571 12.9773C87.3556 12.9773 87.848 12.8239 88.2344 12.517C88.6207 12.2102 88.9067 11.8068 89.0923 11.3068C89.2779 10.8068 89.3707 10.2652 89.3707 9.68182C89.3707 9.09848 89.2779 8.55492 89.0923 8.05114C88.9067 7.54735 88.6207 7.14015 88.2344 6.82955C87.848 6.51894 87.3556 6.36364 86.7571 6.36364C86.1586 6.36364 85.6662 6.51894 85.2798 6.82955C84.8935 7.14015 84.6075 7.54735 84.4219 8.05114C84.2363 8.55492 84.1435 9.09848 84.1435 9.68182C84.1435 10.2652 84.2363 10.8068 84.4219 11.3068C84.6075 11.8068 84.8935 12.2102 85.2798 12.517C85.6662 12.8239 86.1586 12.9773 86.7571 12.9773ZM93.3991 5.27273L95.4901 8.84091L97.581 5.27273H99.1264L96.3082 9.63636L99.1264 14H97.581L95.4901 10.6136L93.3991 14H91.8537L94.6264 9.63636L91.8537 5.27273H93.3991ZM105.54 14V5.27273H106.881V14H105.54ZM106.222 3.81818C105.96 3.81818 105.735 3.72917 105.545 3.55114C105.36 3.37311 105.267 3.15909 105.267 2.90909C105.267 2.65909 105.36 2.44508 105.545 2.26705C105.735 2.08902 105.96 2 106.222 2C106.483 2 106.706 2.08902 106.892 2.26705C107.081 2.44508 107.176 2.65909 107.176 2.90909C107.176 3.15909 107.081 3.37311 106.892 3.55114C106.706 3.72917 106.483 3.81818 106.222 3.81818ZM110.678 8.75V14H109.337V5.27273H110.632V6.63636H110.746C110.95 6.19318 111.261 5.83712 111.678 5.56818C112.094 5.29545 112.632 5.15909 113.291 5.15909C113.882 5.15909 114.399 5.2803 114.842 5.52273C115.286 5.76136 115.63 6.125 115.876 6.61364C116.123 7.09848 116.246 7.71212 116.246 8.45455V14H114.905V8.54545C114.905 7.85985 114.727 7.32576 114.371 6.94318C114.015 6.55682 113.526 6.36364 112.905 6.36364C112.477 6.36364 112.094 6.45644 111.757 6.64205C111.424 6.82765 111.161 7.09848 110.967 7.45455C110.774 7.81061 110.678 8.24242 110.678 8.75ZM118.696 17.2727V5.27273H119.991V6.65909H120.151C120.249 6.50758 120.385 6.31439 120.56 6.07955C120.738 5.84091 120.991 5.62879 121.321 5.44318C121.654 5.25379 122.105 5.15909 122.673 5.15909C123.408 5.15909 124.056 5.3428 124.616 5.71023C125.177 6.07765 125.615 6.59848 125.929 7.27273C126.243 7.94697 126.401 8.74242 126.401 9.65909C126.401 10.5833 126.243 11.3845 125.929 12.0625C125.615 12.7367 125.179 13.2595 124.622 13.6307C124.065 13.9981 123.423 14.1818 122.696 14.1818C122.135 14.1818 121.687 14.089 121.349 13.9034C121.012 13.714 120.753 13.5 120.571 13.2614C120.389 13.0189 120.249 12.8182 120.151 12.6591H120.037V17.2727H118.696ZM120.014 9.63636C120.014 10.2955 120.111 10.8769 120.304 11.3807C120.497 11.8807 120.779 12.2727 121.151 12.5568C121.522 12.8371 121.976 12.9773 122.514 12.9773C123.075 12.9773 123.543 12.8295 123.918 12.5341C124.296 12.2348 124.58 11.8333 124.77 11.3295C124.963 10.822 125.06 10.2576 125.06 9.63636C125.06 9.02273 124.965 8.4697 124.776 7.97727C124.59 7.48106 124.308 7.08902 123.929 6.80114C123.554 6.50947 123.082 6.36364 122.514 6.36364C121.969 6.36364 121.51 6.50189 121.139 6.77841C120.768 7.05114 120.488 7.43371 120.298 7.92614C120.109 8.41477 120.014 8.98485 120.014 9.63636ZM133.946 10.4318V5.27273H135.287V14H133.946V12.5227H133.855C133.651 12.9659 133.332 13.3428 132.901 13.6534C132.469 13.9602 131.923 14.1136 131.264 14.1136C130.719 14.1136 130.234 13.9943 129.81 13.7557C129.385 13.5133 129.052 13.1496 128.81 12.6648C128.567 12.1761 128.446 11.5606 128.446 10.8182V5.27273H129.787V10.7273C129.787 11.3636 129.965 11.8712 130.321 12.25C130.681 12.6288 131.139 12.8182 131.696 12.8182C132.029 12.8182 132.368 12.733 132.713 12.5625C133.062 12.392 133.353 12.1307 133.588 11.7784C133.827 11.4261 133.946 10.9773 133.946 10.4318ZM141.538 5.27273V6.40909H137.016V5.27273H141.538ZM138.334 3.18182H139.675V11.5C139.675 11.8788 139.73 12.1629 139.839 12.3523C139.953 12.5379 140.097 12.6629 140.271 12.7273C140.449 12.7879 140.637 12.8182 140.834 12.8182C140.982 12.8182 141.103 12.8106 141.197 12.7955C141.292 12.7765 141.368 12.7614 141.425 12.75L141.697 13.9545C141.607 13.9886 141.48 14.0227 141.317 14.0568C141.154 14.0947 140.947 14.1136 140.697 14.1136C140.319 14.1136 139.947 14.0322 139.584 13.8693C139.224 13.7064 138.925 13.4583 138.686 13.125C138.451 12.7917 138.334 12.3712 138.334 11.8636V3.18182Z" fill="#333333"/>
<defs>
<clipPath id="clip0_1419_15453">
<rect width="16" height="16" fill="white"/>
</clipPath>
</defs>
</svg>

<svg width="143" height="18" fill="none" xmlns="http://www.w3.org/2000/svg"><g clip-path="url(#a)"><rect width="16" height="16" rx="2" fill="#0F67F5"/><path d="M4 8.5 6.5 11 12 5.5" stroke="#fff" stroke-width="1.7" stroke-linecap="round" stroke-linejoin="round"/></g><path d="M34.77 6h-1.4a2.93 2.93 0 0 0-1.2-1.84c-.29-.21-.6-.37-.97-.48a3.88 3.88 0 0 0-3.02.38 3.7 3.7 0 0 0-1.36 1.57c-.34.7-.5 1.54-.5 2.55 0 1 .16 1.86.5 2.55.34.7.79 1.22 1.36 1.58a3.88 3.88 0 0 0 3.03.38c.35-.11.67-.27.97-.48a3 3 0 0 0 1.18-1.85h1.41a4.36 4.36 0 0 1-3.03 3.54 5.23 5.23 0 0 1-4.3-.47 4.99 4.99 0 0 1-1.82-2.07 7.09 7.09 0 0 1-.67-3.18c0-1.23.23-2.29.67-3.18a4.88 4.88 0 0 1 4.47-2.8c.59 0 1.14.09 1.65.26A4.51 4.51 0 0 1 34.2 4.4c.28.47.48 1 .58 1.6Zm3.44 2.75V14h-1.34V2.36h1.34v4.28h.11c.2-.45.51-.81.92-1.08.42-.27.96-.4 1.65-.4.6 0 1.12.12 1.56.36.45.23.8.6 1.04 1.08.25.49.38 1.1.38 1.85V14h-1.34V8.55c0-.7-.18-1.23-.54-1.61a1.93 1.93 0 0 0-1.49-.58c-.44 0-.83.1-1.18.28-.34.19-.62.46-.82.81-.2.36-.3.8-.3 1.3Zm11.77 5.43a3.74 3.74 0 0 1-3.58-2.13 5.35 5.35 0 0 1-.49-2.35c0-.89.16-1.68.5-2.36a3.7 3.7 0 0 1 3.44-2.18c.45 0 .9.07 1.34.23a3.34 3.34 0 0 1 2.08 2.08c.22.55.32 1.24.32 2.05v.57h-6.72V8.93h5.36c0-.5-.1-.93-.3-1.32a2.23 2.23 0 0 0-2.09-1.25c-.53 0-1 .14-1.38.4-.39.26-.69.6-.9 1.02a3 3 0 0 0-.3 1.36v.77c0 .66.1 1.22.33 1.68.23.45.55.8.96 1.04.41.23.89.35 1.43.35.35 0 .67-.05.95-.15.3-.1.54-.25.75-.46.2-.2.37-.45.48-.76l1.3.37a2.99 2.99 0 0 1-1.89 1.93c-.47.18-1 .27-1.59.27Zm9.2 0a3.8 3.8 0 0 1-2.11-.58A3.78 3.78 0 0 1 55.7 12a5.4 5.4 0 0 1-.48-2.32c0-.88.17-1.67.5-2.34a3.7 3.7 0 0 1 3.44-2.18c.61 0 1.16.11 1.66.34a2.98 2.98 0 0 1 1.8 2.39h-1.35a2.04 2.04 0 0 0-2.1-1.52 2.4 2.4 0 0 0-2.28 1.54 4.23 4.23 0 0 0-.32 1.73c0 .67.1 1.26.31 1.76.22.5.52.89.91 1.16.4.28.86.42 1.39.42.35 0 .66-.06.95-.18a1.96 1.96 0 0 0 1.14-1.35h1.34a3.1 3.1 0 0 1-1.74 2.37 3.8 3.8 0 0 1-1.7.36Zm6.64-3.36-.02-1.66h.27l3.82-3.89h1.66L67.48 9.4h-.11l-1.55 1.43ZM64.57 14V2.36h1.34V14h-1.34Zm5.55 0L66.7 9.68l.95-.93L71.82 14h-1.7Zm3.34 0V2.36h1.34v4.3h.11a12 12 0 0 1 .41-.58c.18-.24.43-.45.76-.64s.79-.28 1.35-.28a3.46 3.46 0 0 1 3.26 2.11c.31.68.47 1.47.47 2.39 0 .92-.16 1.72-.47 2.4a3.42 3.42 0 0 1-3.23 2.12 2.8 2.8 0 0 1-1.35-.28 2.5 2.5 0 0 1-.78-.64 8.6 8.6 0 0 1-.42-.6h-.16V14h-1.3Zm1.31-4.36c0 .66.1 1.24.3 1.74.19.5.47.9.84 1.18.37.28.83.42 1.36.42a2.2 2.2 0 0 0 1.4-.45c.39-.3.67-.7.86-1.2.2-.5.29-1.07.29-1.7 0-.6-.1-1.16-.28-1.65-.19-.5-.47-.9-.85-1.18a2.2 2.2 0 0 0-1.42-.44 2.24 2.24 0 0 0-2.21 1.57 4.72 4.72 0 0 0-.29 1.7Zm11.99 4.54a3.8 3.8 0 0 1-2.08-.56 3.84 3.84 0 0 1-1.38-1.57 5.32 5.32 0 0 1-.5-2.37c0-.9.17-1.7.5-2.38.33-.68.8-1.2 1.38-1.58a3.8 3.8 0 0 1 2.08-.56c.78 0 1.47.19 2.07.56.59.38 1.05.9 1.38 1.58.34.68.5 1.47.5 2.38 0 .9-.16 1.7-.5 2.37-.33.67-.79 1.2-1.38 1.57-.6.37-1.28.56-2.07.56Zm0-1.2c.6 0 1.09-.16 1.47-.46.4-.31.68-.71.86-1.21a4.8 4.8 0 0 0 0-3.26 2.7 2.7 0 0 0-.86-1.22 2.28 2.28 0 0 0-1.47-.47c-.6 0-1.1.16-1.48.47-.39.31-.67.72-.86 1.22a4.8 4.8 0 0 0 0 3.26c.19.5.47.9.86 1.2.39.31.88.47 1.48.47Zm6.64-7.7 2.09 3.56 2.1-3.57h1.54L96.3 9.64 99.13 14h-1.55l-2.09-3.39-2.1 3.39h-1.54l2.78-4.36-2.78-4.37h1.55ZM105.54 14V5.27h1.34V14h-1.34Zm.68-10.18a.96.96 0 0 1-.67-.27.86.86 0 0 1-.28-.64c0-.25.09-.46.28-.64a.96.96 0 0 1 .67-.27c.26 0 .49.09.67.27a.85.85 0 0 1 0 1.28.93.93 0 0 1-.67.27Zm4.46 4.93V14h-1.34V5.27h1.3v1.37h.1c.21-.45.52-.8.94-1.07.41-.27.95-.41 1.61-.41.6 0 1.1.12 1.55.36.45.24.79.6 1.04 1.1.24.48.37 1.1.37 1.83V14h-1.34V8.55c0-.69-.18-1.22-.54-1.6a1.9 1.9 0 0 0-1.47-.59c-.42 0-.8.1-1.14.28a2 2 0 0 0-.8.81c-.19.36-.28.8-.28 1.3Zm8.02 8.52v-12h1.3v1.39h.15c.1-.15.23-.35.41-.58.18-.24.43-.45.76-.64s.79-.28 1.35-.28a3.46 3.46 0 0 1 3.26 2.11c.31.68.47 1.47.47 2.39 0 .92-.16 1.72-.47 2.4a3.42 3.42 0 0 1-3.23 2.12c-.56 0-1.01-.1-1.35-.28a2.5 2.5 0 0 1-.78-.64 8.36 8.36 0 0 1-.42-.6h-.11v4.61h-1.34Zm1.3-7.63c0 .66.1 1.24.3 1.74.19.5.47.9.84 1.18.37.28.83.42 1.36.42a2.2 2.2 0 0 0 1.4-.45c.39-.3.67-.7.86-1.2.2-.5.29-1.07.29-1.7 0-.6-.1-1.16-.28-1.65-.19-.5-.47-.9-.85-1.18a2.2 2.2 0 0 0-1.42-.44 2.24 2.24 0 0 0-2.21 1.57 4.73 4.73 0 0 0-.29 1.7Zm13.94.8V5.26h1.34V14h-1.34v-1.48h-.1a2.74 2.74 0 0 1-2.59 1.59 3 3 0 0 1-1.45-.35 2.5 2.5 0 0 1-1-1.1 4.14 4.14 0 0 1-.36-1.84V5.27h1.34v5.46c0 .63.18 1.14.53 1.52.36.38.82.57 1.38.57a2.28 2.28 0 0 0 2.25-2.39Zm7.59-5.17v1.14h-4.52V5.27h4.52Zm-3.2-2.09h1.34v8.32c0 .38.05.66.16.85.11.19.26.31.43.38.18.06.37.09.56.09.15 0 .27 0 .37-.02l.23-.05.27 1.2a2.67 2.67 0 0 1-1 .16 2.7 2.7 0 0 1-1.12-.24 2.21 2.21 0 0 1-.9-.74 2.14 2.14 0 0 1-.35-1.27V3.18Z" fill="#333"/><defs><clipPath id="a"><path fill="#fff" d="M0 0h16v16H0z"/></clipPath></defs></svg>
